X:1
T:Title
%%score ( 1 2 3 ) { 4 | 5 }
L:1/8
Q:1/4=100
M:4/4
K:E
V:1 treble nm="Bright Piano"
V:2 treble 
V:3 treble 
V:4 bass nm="Bright Piano"
V:5 bass 
V:1
 [EG]3 [DF] E2 [EG]2 | z4 .B2 z2 | [DF]3 [B,E] [B,D]2 E2 | [DF]2 [FA][EG] [DF]4 | %4
w: Oskar~Schumm * * *||||
 [EB]3 [DA] [EG]2 [FB]2 | [Ge]2 [Fd]2 [Fd][Ec] [DB]2 | B4 z4 | [^EG]2 [=E^A]2 [DB]4 | %8
w: ||||
 [DA]3 [DF] [EG]2 E2 | z4 .c2 z2 | [Gc]2 [Gd]2 [Ge]3 [Gc] | [Fd]2 [Ec]2 [DB]4 | %12
w: ||||
 [Dc]3 [EB] [FA]2 [EG]2 | [DF]2 [=DE]2 [CE][Ec] [Ec]2 | z2 .c2 z4 | z2 A2 z4 |] %16
w: ||||
V:2
 x8 | [Ec]3 [EB] F-[FA] [EG]2 | x8 | x8 | x8 | x8 | D2 z c [Fd]2 [FB]2 | x8 | x8 | %9
 [EA]2 [Ec]2 E-[EB] [EB]2 | x8 | x8 | x8 | x8 | [EB]2 A-[Ad] [Ge]2 [EG]2 | [EB]2 ED [EG]4 |] %16
V:3
 x8 | x8 | x8 | x8 | x8 | x8 | z2 ^E2 z4 | x8 | x8 | x8 | x8 | x8 | x8 | x8 | x8 | x8 |] %16
V:4
 B,3 A, G,2 B,2 | A,3 B, B,2 B,2 | A,3 G, F,2 B,2 | B,2 B,2 z4 | B,3 B, B,2 B,2 | %5
 B,^A, B,2 A,2 B,2 | B,2 B,2 B,2 D2 | =D2 C2 B,4 | F,3 B, B,2 G,2 | A,2 A,2 A,G, G,2 | %10
 G,2 ^A,[K:treble]^B, C3 C | CB,[K:bass]B,^A, B,4 | A,3 G, B,2 B,2 | A,2 G,2 A,2 A,2 | %14
 B,2 A,2 B,2 B,^A, | A,G,F,B, B,4 |] %16
V:5
 E,3 E, E,2 E,2 | z2 z G, D,2 E,2 | B,,3 B,, B,,A,, G,,2 | B,,2 E,G, B,4 | G,3 F, E,2 D,2 | %5
 C,2 D,E, F,2 z2 | G,2 =G,2 F,2 F,2 | F,2 F,2 z4 | B,,3 B,, E,2 E,=D, | C,B,,A,,C, E,2 E,2 | %10
 E,2 D,2 C,3 E, | F,2 F,,2 B,,4 | B,,3 B,, D,2 E,2 | E,2 E,2 A,,2 z2 | G,2 F,2 E,D, C,2 | %15
 B,,2 B,,2 E,4 |] %16

